X:1
T:Dame Durden
M:6/8
L:1/8
K:G
 D| G2 G G2 B| G2 G G2 A| BBB B2 B| B2- A2G-A| B2 A B2 d| GGF E2 F|\
 G2 G F2 F| E3- E2 D| G2 G B2 G| G2 G B2 G| BBBB-A G| B- A2- AG A|\
 B2 A B2 A| G2 F E2 F| G2 G F2 D| E3- E2 D| G2 G GBD| G2 G GBD| G2 G GBD|\
 G2 G GBD| B2 dd B2| B- A2- AG-A| BBA B2 A| G2 F E2 F| GFE F2 D| E3- E2||\
